svgs/duotone/vector-polygon.svg

<svg xmlns="http://www.w3.org/2000/svg" viewBox="0 0 448 512"><!-- Font Awesome Pro 6.0.0-alpha2 by @fontawesome - https://fontawesome.com License - https://fontawesome.com/license (Commercial License) --><defs><style>.fa-secondary{opacity:.4}</style></defs><path d="M320 192C334.357 192 346.059 201.629 350.113 214.65L382.926 160H352C337.645 160 325.943 150.373 321.889 137.35L289.074 192H320ZM320 320H289.074L321.889 374.65C325.943 361.627 337.645 352 352 352H382.926L350.113 297.35C346.059 310.371 334.357 320 320 320ZM320 64H128V128H320V64ZM32 352H96V160H32V352ZM128 448H320V384H128V448Z" class="fa-secondary"/><path d="M96 32H32C14.328 32 0 46.326 0 64V128C0 145.674 14.328 160 32 160H96C113.674 160 128 145.674 128 128V64C128 46.326 113.674 32 96 32ZM80 112H48V80H80V112ZM416 32H352C334.328 32 320 46.326 320 64V128C320 145.674 334.328 160 352 160H416C433.674 160 448 145.674 448 128V64C448 46.326 433.674 32 416 32ZM400 112H368V80H400V112ZM416 352H352C334.328 352 320 366.326 320 384V448C320 465.674 334.328 480 352 480H416C433.674 480 448 465.674 448 448V384C448 366.326 433.674 352 416 352ZM400 432H368V400H400V432ZM96 352H32C14.328 352 0 366.326 0 384V448C0 465.674 14.328 480 32 480H96C113.674 480 128 465.674 128 448V384C128 366.326 113.674 352 96 352ZM80 432H48V400H80V432ZM352 288V224C352 206.326 337.674 192 320 192H256C238.328 192 224 206.326 224 224V288C224 305.674 238.328 320 256 320H320C337.674 320 352 305.674 352 288ZM304 272H272V240H304V272Z" class="fa-primary"/></svg>

<svg xmlns="http://www.w3.org/2000/svg" viewBox="0 0 448 512"><!--! Font Awesome Pro 6.4.0 by @fontawesome - https://fontawesome.com License - https://fontawesome.com/license (Commercial License) Copyright 2023 Fonticons, Inc. --><defs><style>.fa-secondary{opacity:.4}</style></defs><path class="fa-primary" d="M32 32C14.3 32 0 46.3 0 64v64c0 17.7 14.3 32 32 32H96c17.7 0 32-14.3 32-32V64c0-17.7-14.3-32-32-32H32zM80 80v32H48V80H80zM352 32c-17.7 0-32 14.3-32 32v64c0 17.7 14.3 32 32 32h64c17.7 0 32-14.3 32-32V64c0-17.7-14.3-32-32-32H352zm48 48v32H368V80h32zM0 384v64c0 17.7 14.3 32 32 32H96c17.7 0 32-14.3 32-32V384c0-17.7-14.3-32-32-32H32c-17.7 0-32 14.3-32 32zm48 16H80v32H48V400zm304-48c-17.7 0-32 14.3-32 32v64c0 17.7 14.3 32 32 32h64c17.7 0 32-14.3 32-32V384c0-17.7-14.3-32-32-32H352zm48 48v32H368V400h32zM224 224v64c0 17.7 14.3 32 32 32h64c17.7 0 32-14.3 32-32V224c0-17.7-14.3-32-32-32H256c-17.7 0-32 14.3-32 32zm48 16h32v32H272V240z"/><path class="fa-secondary" d="M128 64v64H320V64H128zm194.2 75.7L292.3 192H320c15.5 0 28.4 11 31.4 25.6l28.4-49.7 4.5-7.9H352c-13.6 0-25.1-8.4-29.8-20.3zM292.3 320l29.9 52.3c4.7-11.9 16.2-20.3 29.8-20.3h32.3l-4.5-7.9-28.4-49.7C348.4 309 335.5 320 320 320H292.3zM320 448V384H128v64H320zM96 352V160H32V352H96z"/></svg>
